markup/sourceimages/icon16.svg

<svg xmlns="http://www.w3.org/2000/svg" width="66" height="56"><path fill-rule="evenodd" fill="#5393DD" d="M64.862 44.571c-1.689 0-2.491.46-3.419.993-1.056.606-2.254 1.293-4.548 1.293-2.293 0-3.491-.687-4.547-1.293-.928-.533-1.729-.993-3.419-.993-1.689 0-2.49.46-3.418.993-1.056.606-2.254 1.293-4.547 1.293-2.294 0-3.491-.687-4.547-1.293-.928-.533-1.729-.993-3.419-.993-1.689 0-2.49.46-3.418.993-1.056.606-2.253 1.293-4.547 1.293-2.293 0-3.49-.687-4.547-1.293-.927-.533-1.729-.993-3.418-.993s-2.49.46-3.418.993c-1.056.606-2.253 1.293-4.547 1.293-2.293 0-3.491-.687-4.547-1.293-.928-.533-1.729-.993-3.418-.993A1.14 1.14 0 0 1 0 43.429a1.14 1.14 0 0 1 1.138-1.143c2.293 0 3.491.687 4.547 1.293.928.532 1.729.992 3.418.992s2.49-.46 3.418-.992c.339-.194.693-.397 1.091-.582V13.743C13.612 6.165 19.751 0 27.296 0c.314 0 .632.011.945.032a1.142 1.142 0 0 1 1.058 1.218 1.14 1.14 0 0 1-1.213 1.063 11.537 11.537 0 0 0-.79-.027c-6.29 0-11.408 5.139-11.408 11.457v2.2h10.27v-2.2C26.158 6.165 32.297 0 39.842 0c7.545 0 13.683 6.165 13.683 13.743a1.14 1.14 0 0 1-1.138 1.143 1.14 1.14 0 0 1-1.137-1.143c0-6.318-5.118-11.457-11.408-11.457-1.405 0-2.75.258-3.994.726 3.241 2.594 5.132 6.494 5.132 10.731 0 .631-.51 1.143-1.138 1.143a1.14 1.14 0 0 1-1.138-1.143c0-3.888-1.91-7.436-5.129-9.567a11.467 11.467 0 0 0-5.141 9.567v26.343a1.14 1.14 0 0 1-1.138 1.142 1.14 1.14 0 0 1-1.138-1.142V36.6h-10.27v5.753a9.919 9.919 0 0 1 1.18-.067c2.294 0 3.491.687 4.548 1.293.927.532 1.728.992 3.417.992 1.69 0 2.491-.46 3.418-.992 1.057-.606 2.254-1.293 4.548-1.293 2.293 0 3.49.687 4.547 1.293.928.532 1.729.992 3.418.992s2.49-.459 3.418-.992c1.056-.606 2.254-1.293 4.547-1.293 2.294 0 3.491.687 4.548 1.293.928.532 1.729.992 3.419.992 1.689 0 2.49-.459 3.418-.992 1.057-.606 2.254-1.293 4.548-1.293A1.14 1.14 0 0 1 66 43.429a1.14 1.14 0 0 1-1.138 1.142zM26.158 18.229h-10.27v6.899h10.27v-6.899zm0 16.085v-6.9h-10.27v6.9h10.27zM9.103 49.143c1.689 0 2.49-.46 3.418-.993 1.056-.606 2.254-1.293 4.547-1.293 2.294 0 3.491.687 4.548 1.293.927.533 1.728.993 3.417.993 1.69 0 2.491-.46 3.418-.993 1.057-.606 2.254-1.293 4.548-1.293 2.293 0 3.49.687 4.547 1.293.928.533 1.729.993 3.418.993s2.49-.46 3.418-.993c1.056-.606 2.254-1.293 4.547-1.293 2.294 0 3.491.687 4.548 1.293.928.533 1.729.993 3.419.993a1.14 1.14 0 0 1 1.137 1.143 1.14 1.14 0 0 1-1.138 1.142c-2.293 0-3.491-.687-4.547-1.293-.928-.532-1.729-.992-3.419-.992-1.689 0-2.49.46-3.418.992-1.056.606-2.254 1.293-4.547 1.293-2.294 0-3.491-.687-4.547-1.293-.928-.532-1.729-.992-3.419-.992-1.689 0-2.49.46-3.418.992-1.056.606-2.253 1.293-4.547 1.293-2.293 0-3.49-.687-4.547-1.293-.927-.532-1.729-.992-3.418-.992s-2.49.46-3.418.992c-1.056.606-2.253 1.293-4.547 1.293a1.14 1.14 0 0 1-1.138-1.142c0-.631.51-1.143 1.138-1.143zm7.965 2.285c2.294 0 3.491.688 4.548 1.294.927.532 1.728.992 3.417.992 1.69 0 2.491-.46 3.418-.992 1.057-.606 2.254-1.294 4.548-1.294 2.293 0 3.49.688 4.547 1.294.928.532 1.729.992 3.418.992s2.49-.459 3.418-.992c1.056-.606 2.254-1.294 4.547-1.294a1.14 1.14 0 0 1 1.138 1.143 1.14 1.14 0 0 1-1.138 1.143c-1.689 0-2.49.46-3.418.992-1.056.607-2.254 1.294-4.547 1.294-2.294 0-3.491-.687-4.547-1.294-.928-.532-1.729-.992-3.419-.992-1.689 0-2.49.46-3.418.992-1.056.607-2.253 1.294-4.547 1.294-2.293 0-3.49-.687-4.547-1.294-.927-.532-1.729-.992-3.418-.992a1.14 1.14 0 0 1-1.138-1.143c0-.631.51-1.143 1.138-1.143z"/></svg>

<svg 
 xmlns="http://www.w3.org/2000/svg"
 xmlns:xlink="http://www.w3.org/1999/xlink"
 width="66px" height="56px">
<path fill-rule="evenodd"  fill="rgb(83, 147, 221)"
 d="M64.862,44.571 C63.173,44.571 62.371,45.031 61.443,45.564 C60.387,46.170 59.189,46.857 56.895,46.857 C54.602,46.857 53.404,46.170 52.348,45.564 C51.420,45.031 50.619,44.571 48.929,44.571 C47.240,44.571 46.439,45.031 45.511,45.564 C44.455,46.170 43.257,46.857 40.964,46.857 C38.670,46.857 37.473,46.170 36.417,45.564 C35.489,45.031 34.688,44.571 32.998,44.571 C31.309,44.571 30.508,45.031 29.580,45.564 C28.524,46.170 27.327,46.857 25.033,46.857 C22.740,46.857 21.543,46.170 20.486,45.564 C19.559,45.031 18.757,44.571 17.068,44.571 C15.379,44.571 14.578,45.031 13.650,45.564 C12.594,46.170 11.397,46.857 9.103,46.857 C6.810,46.857 5.612,46.170 4.556,45.564 C3.628,45.031 2.827,44.571 1.138,44.571 C0.509,44.571 -0.000,44.060 -0.000,43.429 C-0.000,42.797 0.509,42.286 1.138,42.286 C3.431,42.286 4.629,42.973 5.685,43.579 C6.613,44.111 7.414,44.571 9.103,44.571 C10.792,44.571 11.593,44.111 12.521,43.579 C12.860,43.385 13.214,43.182 13.612,42.997 L13.612,13.743 C13.612,6.165 19.751,-0.000 27.296,-0.000 C27.610,-0.000 27.928,0.011 28.241,0.032 C28.868,0.075 29.342,0.621 29.299,1.250 C29.256,1.880 28.714,2.356 28.086,2.313 C27.825,2.295 27.559,2.286 27.296,2.286 C21.006,2.286 15.888,7.425 15.888,13.743 L15.888,15.943 L26.158,15.943 L26.158,13.743 C26.158,6.165 32.297,-0.000 39.842,-0.000 C47.387,-0.000 53.525,6.165 53.525,13.743 C53.525,14.374 53.016,14.886 52.387,14.886 C51.759,14.886 51.250,14.374 51.250,13.743 C51.250,7.425 46.132,2.286 39.842,2.286 C38.437,2.286 37.092,2.544 35.848,3.012 C39.089,5.606 40.980,9.506 40.980,13.743 C40.980,14.374 40.470,14.886 39.842,14.886 C39.213,14.886 38.704,14.374 38.704,13.743 C38.704,9.855 36.794,6.307 33.575,4.176 C30.481,6.227 28.434,9.749 28.434,13.743 L28.434,40.086 C28.434,40.717 27.925,41.228 27.296,41.228 C26.668,41.228 26.158,40.717 26.158,40.086 L26.158,36.600 L15.888,36.600 L15.888,42.353 C16.247,42.310 16.639,42.286 17.068,42.286 C19.362,42.286 20.559,42.973 21.616,43.579 C22.543,44.111 23.344,44.571 25.033,44.571 C26.723,44.571 27.524,44.111 28.451,43.579 C29.508,42.973 30.705,42.286 32.999,42.286 C35.292,42.286 36.489,42.973 37.546,43.579 C38.474,44.111 39.275,44.571 40.964,44.571 C42.653,44.571 43.454,44.112 44.382,43.579 C45.438,42.973 46.636,42.286 48.929,42.286 C51.223,42.286 52.420,42.973 53.477,43.579 C54.405,44.111 55.206,44.571 56.896,44.571 C58.585,44.571 59.386,44.112 60.314,43.579 C61.371,42.973 62.568,42.286 64.862,42.286 C65.490,42.286 66.000,42.797 66.000,43.429 C66.000,44.060 65.490,44.571 64.862,44.571 ZM26.158,18.229 L15.888,18.229 L15.888,25.128 L26.158,25.128 L26.158,18.229 ZM26.158,34.314 L26.158,27.414 L15.888,27.414 L15.888,34.314 L26.158,34.314 ZM9.103,49.143 C10.792,49.143 11.593,48.683 12.521,48.150 C13.577,47.544 14.775,46.857 17.068,46.857 C19.362,46.857 20.559,47.544 21.616,48.150 C22.543,48.683 23.344,49.143 25.033,49.143 C26.723,49.143 27.524,48.683 28.451,48.150 C29.508,47.544 30.705,46.857 32.999,46.857 C35.292,46.857 36.489,47.544 37.546,48.150 C38.474,48.683 39.275,49.143 40.964,49.143 C42.653,49.143 43.454,48.683 44.382,48.150 C45.438,47.544 46.636,46.857 48.929,46.857 C51.223,46.857 52.420,47.544 53.477,48.150 C54.405,48.683 55.206,49.143 56.896,49.143 C57.524,49.143 58.033,49.655 58.033,50.286 C58.033,50.917 57.524,51.428 56.895,51.428 C54.602,51.428 53.404,50.741 52.348,50.135 C51.420,49.603 50.619,49.143 48.929,49.143 C47.240,49.143 46.439,49.603 45.511,50.135 C44.455,50.741 43.257,51.428 40.964,51.428 C38.670,51.428 37.473,50.741 36.417,50.135 C35.489,49.603 34.688,49.143 32.998,49.143 C31.309,49.143 30.508,49.603 29.580,50.135 C28.524,50.741 27.327,51.428 25.033,51.428 C22.740,51.428 21.543,50.741 20.486,50.135 C19.559,49.603 18.757,49.143 17.068,49.143 C15.379,49.143 14.578,49.603 13.650,50.135 C12.594,50.741 11.397,51.428 9.103,51.428 C8.475,51.428 7.965,50.917 7.965,50.286 C7.965,49.655 8.475,49.143 9.103,49.143 ZM17.068,51.428 C19.362,51.428 20.559,52.116 21.616,52.722 C22.543,53.254 23.344,53.714 25.033,53.714 C26.723,53.714 27.524,53.254 28.451,52.722 C29.508,52.116 30.705,51.428 32.999,51.428 C35.292,51.428 36.489,52.116 37.546,52.722 C38.474,53.254 39.275,53.714 40.964,53.714 C42.653,53.714 43.454,53.255 44.382,52.722 C45.438,52.116 46.636,51.428 48.929,51.428 C49.558,51.428 50.067,51.940 50.067,52.571 C50.067,53.203 49.558,53.714 48.929,53.714 C47.240,53.714 46.439,54.174 45.511,54.706 C44.455,55.313 43.257,56.000 40.964,56.000 C38.670,56.000 37.473,55.313 36.417,54.706 C35.489,54.174 34.688,53.714 32.998,53.714 C31.309,53.714 30.508,54.174 29.580,54.706 C28.524,55.313 27.327,56.000 25.033,56.000 C22.740,56.000 21.543,55.313 20.486,54.706 C19.559,54.174 18.757,53.714 17.068,53.714 C16.440,53.714 15.930,53.203 15.930,52.571 C15.930,51.940 16.440,51.428 17.068,51.428 Z"/>
</svg>
